build/img/icon/Advantages/credit-card.svg

<svg width="40" height="40" viewBox="0 0 40 40" fill="none" xmlns="http://www.w3.org/2000/svg">
<g clip-path="url(#clip0_5_47)">
<path d="M34.735 3.92578H10.7031C7.8 3.92578 5.43813 6.28766 5.43813 9.19078V9.90234H5.265C2.36187 9.90234 0 12.2642 0 15.1673V15.8789V30.8092C0 33.7123 2.36187 36.0742 5.26508 36.0742H29.2969C32.2 36.0742 34.562 33.7123 34.562 30.8092V30.0977H34.7351C37.6382 30.0977 40.0001 27.7358 40.0001 24.8327V9.19078C40 6.28766 37.6382 3.92578 34.735 3.92578ZM32.2182 30.8092C32.2182 32.42 30.9077 33.7305 29.2969 33.7305H5.26508C3.65422 33.7305 2.34375 32.42 2.34375 30.8092V23.8477H32.2182V30.8092ZM32.2182 21.5039H2.34375V18.2227H32.2182V21.5039ZM32.2182 15.8789H2.34375V15.1673C2.34375 13.5566 3.65422 12.2461 5.26508 12.2461H29.2969C30.9077 12.2461 32.2182 13.5566 32.2182 15.1673V15.8789ZM37.6562 24.8327C37.6562 26.4434 36.3459 27.7539 34.735 27.7539H34.5619V15.1673C34.5619 12.2642 32.2 9.90234 29.2968 9.90234H7.78188V9.19078C7.78188 7.58 9.09227 6.26953 10.7031 6.26953H34.735C36.3458 6.26953 37.6562 7.58 37.6562 9.19078V24.8327Z" fill="#FFB800"/>
<path d="M5.67725 27.4414H15.9897V29.7852H5.67725V27.4414Z" fill="#FFB800"/>
<path d="M24.5834 27.4414H28.8848V29.7852H24.5834V27.4414Z" fill="#FFB800"/>
</g>
<defs>
<clipPath id="clip0_5_47">
<rect width="40" height="40" fill="white"/>
</clipPath>
</defs>
</svg>

<svg width="40" height="40" fill="none" xmlns="http://www.w3.org/2000/svg"><g clip-path="url(#clip0_5_47)" fill="#FFB800"><path d="M34.735 3.926H10.703A5.271 5.271 0 005.438 9.19v.711h-.173A5.27 5.27 0 000 15.167V30.81a5.271 5.271 0 005.265 5.265h24.032a5.271 5.271 0 005.265-5.265v-.711h.173A5.271 5.271 0 0040 24.833V9.19a5.271 5.271 0 00-5.265-5.265zm-2.517 26.883a2.924 2.924 0 01-2.921 2.921H5.265a2.925 2.925 0 01-2.921-2.92v-6.962h29.874v6.961zm0-9.305H2.344v-3.281h29.874v3.28zm0-5.625H2.344v-.712c0-1.61 1.31-2.92 2.921-2.92h24.032c1.61 0 2.921 1.31 2.921 2.92v.712zm5.438 8.954c0 1.61-1.31 2.92-2.921 2.92h-.173V15.168a5.271 5.271 0 00-5.265-5.265H7.782v-.711a2.924 2.924 0 012.921-2.921h24.032c1.61 0 2.921 1.31 2.921 2.92v15.643z"/><path d="M5.677 27.441H15.99v2.344H5.677v-2.344zm18.906 0h4.302v2.344h-4.302v-2.344z"/></g><defs><clipPath id="clip0_5_47"><path fill="#fff" d="M0 0h40v40H0z"/></clipPath></defs></svg>
